svg/fluentui-system-icons/ic_fluent_incognito_20_regular.svg

<svg width="20" height="20" viewBox="0 0 20 20" fill="none" xmlns="http://www.w3.org/2000/svg">
<path d="M6.1709 4.27639C6.25559 4.107 6.42873 4 6.61811 4H13.382C13.5714 4 13.7446 4.107 13.8293 4.27639L15.0529 6.72361C15.1764 6.9706 15.4767 7.07071 15.7237 6.94721C15.9707 6.82372 16.0708 6.52338 15.9473 6.27639L14.7237 3.82918C14.4696 3.321 13.9502 3 13.382 3H6.61811C6.04995 3 5.53056 3.321 5.27647 3.82918L4.05286 6.27639C3.92937 6.52338 4.02948 6.82372 4.27647 6.94721C4.52346 7.07071 4.8238 6.9706 4.94729 6.72361L6.1709 4.27639ZM17.4179 8.99322C11.4723 8.00227 8.52785 8.00226 2.58228 8.99322C2.3099 9.03862 2.05228 8.85461 2.00688 8.58223C1.96148 8.30984 2.14549 8.05223 2.41788 8.00683C8.4723 6.99772 11.5279 6.99773 17.5823 8.00683C17.8547 8.05223 18.0387 8.30984 17.9933 8.58223C17.9479 8.85461 17.6903 9.03862 17.4179 8.99322ZM5.50008 11C4.11937 11 3.00008 12.1193 3.00008 13.5C3.00008 14.8807 4.11937 16 5.50008 16C6.88079 16 8.00008 14.8807 8.00008 13.5C8.00008 12.1193 6.88079 11 5.50008 11ZM2.00008 13.5C2.00008 11.567 3.56708 10 5.50008 10C7.26331 10 8.72202 11.3039 8.96463 13H11.0355C11.2781 11.3039 12.7368 10 14.5001 10C16.4331 10 18.0001 11.567 18.0001 13.5C18.0001 15.433 16.4331 17 14.5001 17C12.7368 17 11.2781 15.6961 11.0355 14H8.96463C8.72202 15.6961 7.26331 17 5.50008 17C3.56708 17 2.00008 15.433 2.00008 13.5ZM14.5001 11C13.1194 11 12.0001 12.1193 12.0001 13.5C12.0001 14.8807 13.1194 16 14.5001 16C15.8808 16 17.0001 14.8807 17.0001 13.5C17.0001 12.1193 15.8808 11 14.5001 11Z" fill="#212121"/>
</svg>

<svg xmlns="http://www.w3.org/2000/svg" width="20" height="20"><path d="M6.17 4.276A.5.5 0 0 1 6.619 4h6.764a.5.5 0 0 1 .447.276l1.224 2.448a.5.5 0 1 0 .894-.448L14.724 3.83A1.5 1.5 0 0 0 13.382 3H6.618a1.5 1.5 0 0 0-1.342.83L4.053 6.275a.5.5 0 0 0 .894.448l1.224-2.448Zm11.248 4.717c-5.946-.99-8.89-.99-14.836 0a.5.5 0 0 1-.164-.986c6.054-1.01 9.11-1.01 15.164 0a.5.5 0 1 1-.164.986ZM5.5 11a2.5 2.5 0 1 0 0 5 2.5 2.5 0 0 0 0-5ZM2 13.5a3.5 3.5 0 0 1 6.965-.5h2.07a3.5 3.5 0 1 1 0 1h-2.07A3.5 3.5 0 0 1 2 13.5ZM14.5 11a2.5 2.5 0 1 0 0 5 2.5 2.5 0 0 0 0-5Z"/></svg>
